sacjatek/assets/icons/apps-add.svg

<svg xmlns="http://www.w3.org/2000/svg" width="512" height="512" viewBox="0 0 24 24"><path d="M7 0H4a4 4 0 0 0-4 4v3a4 4 0 0 0 4 4h3a4 4 0 0 0 4-4V4a4 4 0 0 0-4-4Zm2 7a2 2 0 0 1-2 2H4a2 2 0 0 1-2-2V4a2 2 0 0 1 2-2h3a2 2 0 0 1 2 2ZM7 13H4a4 4 0 0 0-4 4v3a4 4 0 0 0 4 4h3a4 4 0 0 0 4-4v-3a4 4 0 0 0-4-4Zm2 7a2 2 0 0 1-2 2H4a2 2 0 0 1-2-2v-3a2 2 0 0 1 2-2h3a2 2 0 0 1 2 2ZM20 13h-3a4 4 0 0 0-4 4v3a4 4 0 0 0 4 4h3a4 4 0 0 0 4-4v-3a4 4 0 0 0-4-4Zm2 7a2 2 0 0 1-2 2h-3a2 2 0 0 1-2-2v-3a2 2 0 0 1 2-2h3a2 2 0 0 1 2 2ZM14 7h3v3a1 1 0 0 0 2 0V7h3a1 1 0 0 0 0-2h-3V2a1 1 0 0 0-2 0v3h-3a1 1 0 0 0 0 2Z"/></svg>

<?xml version="1.0" encoding="UTF-8"?>
<svg xmlns="http://www.w3.org/2000/svg" id="Outline" viewBox="0 0 24 24" width="512" height="512"><path d="M7,0H4A4,4,0,0,0,0,4V7a4,4,0,0,0,4,4H7a4,4,0,0,0,4-4V4A4,4,0,0,0,7,0ZM9,7A2,2,0,0,1,7,9H4A2,2,0,0,1,2,7V4A2,2,0,0,1,4,2H7A2,2,0,0,1,9,4Z"/><path d="M7,13H4a4,4,0,0,0-4,4v3a4,4,0,0,0,4,4H7a4,4,0,0,0,4-4V17A4,4,0,0,0,7,13Zm2,7a2,2,0,0,1-2,2H4a2,2,0,0,1-2-2V17a2,2,0,0,1,2-2H7a2,2,0,0,1,2,2Z"/><path d="M20,13H17a4,4,0,0,0-4,4v3a4,4,0,0,0,4,4h3a4,4,0,0,0,4-4V17A4,4,0,0,0,20,13Zm2,7a2,2,0,0,1-2,2H17a2,2,0,0,1-2-2V17a2,2,0,0,1,2-2h3a2,2,0,0,1,2,2Z"/><path d="M14,7h3v3a1,1,0,0,0,2,0V7h3a1,1,0,0,0,0-2H19V2a1,1,0,0,0-2,0V5H14a1,1,0,0,0,0,2Z"/></svg>
